X:70
T: Gullane
T: Port an Ghall\'ain
S: B.Breathnach: "Ceol Rince na hEireann" II/18
Z: B.Black
L: 1/8
M: 6/8
R: jig
K: D
e|fdB AFA|DFD DFA|BdB AFA|ABd ede|
fe/d/B AFA|DFA AFA|Bc/d/B AFA|Bdd d2 :|
e|faa ef/g/e|dBA d2e|f^ef =ede|faa bag|
faf ef/g/e|dBA d/e/de|fdB AFA| Bdd d2 :|


